X:121
T:Sweet Richard THO3.121
O:England;London
M:C
L:1/8
Z:vmp. Peter Dunk 2011.from a transcription by Fynn Titford-Mock 2006-9
B:Thompson's Compleat Collection of 200 Favourite Country Dances Vol. III.1765-72
Q:1/4=140
K:G
DG-GF/E/ FA-AG/F/|GB-BA/G/ AB c2|B>cdB cABG|EAGF G[BD][dB,][gG,]:|
|:gggg ffff|eeee dd d2|gggg ffff|eeee d2d2|
ec e2 dB d2|cBAG Bc d2|BcdB cABG|EAGF G[BD][dB,][gG,]:|

